2. Evclid/img/fb.svg

<svg fill="none" height="61" viewBox="0 0 61 61" width="61" xmlns="http://www.w3.org/2000/svg"><path d="m30.9166.120117c-16.4999 0-29.999928 13.524083-29.999928 30.180683 0 15.0603 10.980028 27.5603 25.319928 29.8193v-21.0843h-7.62v-8.735h7.62v-6.6566c0-7.5602 4.47-11.7169 11.34-11.7169 3.27 0 6.69.5723 6.69.5723v7.4398h-3.78c-3.72 0-4.89 2.3193-4.89 4.6988v5.6626h8.34l-1.35 8.735h-6.99v21.0843c7.0693-1.1209 13.5066-4.7424 18.1498-10.2106 4.6431-5.4683 7.1862-12.423 7.1702-19.6087 0-16.6566-13.5-30.180683-30-30.180683z" fill="#7c7c7c"/></svg>

<svg width="61" height="61" viewBox="0 0 61 61" fill="none" xmlns="http://www.w3.org/2000/svg">
<path d="M30.9166 0.120117C14.4167 0.120117 0.916672 13.6442 0.916672 30.3008C0.916672 45.3611 11.8967 57.8611 26.2366 60.1201V39.0358H18.6166V30.3008H26.2366V23.6442C26.2366 16.084 30.7066 11.9273 37.5766 11.9273C40.8466 11.9273 44.2666 12.4996 44.2666 12.4996V19.9394H40.4866C36.7666 19.9394 35.5966 22.2587 35.5966 24.6382V30.3008H43.9366L42.5866 39.0358H35.5966V60.1201C42.6659 58.9992 49.1032 55.3777 53.7464 49.9095C58.3895 44.4412 60.9326 37.4865 60.9166 30.3008C60.9166 13.6442 47.4166 0.120117 30.9166 0.120117Z" fill="#7C7C7C"/>
</svg>
